X: 25743
T: Mary O' The Wisp
R: reel
M: 4/4
K: Dmajor
dB|:Add2 ecdB|Addc dedB|Acde fdeg|fbge fdB^G|
Add2 ecdB|Addc dedB|Acde fbed|cA~A2 cA~A2:|
fAge fdge|fdge fdB2|fage fefg|aA~A2 aA~A2|
fAge fdge|fbge fefg|abaf egfd|1 cA~A2 cA~A2:|
[2 "^last time"cA~A2 cAGE|D8||

